X: 32
T: Widow gin thou be waking
%R: _
B: "A Collection of Original Scotch-Tunes", Henry Playford, 1700, ed. p.14 #32
F: http://imslp.org/wiki/A_Collection_of_Original_Scotch_Tunes_(Various)
Z: 2015 John Chambers <jc:trillian.mit.edu>
N: Final D in first strain lengthened to match other endings and fix the rhythm.
M: none
L: 1/8
K: F
% - - - - - - - - - - - - - - - - - - - - - - - - - - - - -
D2 |\
F3 G A2 A2 | Ac G2 G2 FD | F3 G Ac GA | F4 C2 G>A |\
B2 cB A2 (cB/c/) | d2 G2 G2 FD | F3 G AB GA | F4 D4 ||
FEFG AGAB | c2 G2 G2 FD | FEFG Ac GA | F4 f2 fg |\
agfd (fd) (cA) | (cA) (GF) G2 FD | F2 f2 cA GA | F4 D4 ||
f3 g a2 a2 | ac' g2 g2 fd | f3 g a2 ag | f4 d2 G>A |\
B2 c>B A2 (cB/c/) | d2 G2 G2 FD | F3 G Ac GA | F4 D4 ||
defd fgaf | gfga g2 de | fc fg fgag | f4 d2 f>g |\
ag fd cA ag | fd cA G2 FD | F2 f2 cA GA | F4 D4 |]
% - - - - - - - - - - - - - - - - - - - - - - - - - - - - -

%%sep 1 1 500
%%sep 1 1 500

